src/pos-icons/arrow-right-box.svg

<svg height="24" viewBox="0 0 24 24" width="24" xmlns="http://www.w3.org/2000/svg"><path d="m5 21a2 2 0 0 1 -2-2v-14a2 2 0 0 1 2-2h14a2 2 0 0 1 2 2v14c0 1.11-.9 2-2 2zm1-8h8.5l-3.5 3.5 1.42 1.42 5.92-5.92-5.92-5.92-1.42 1.42 3.5 3.5h-8.5z"/></svg>

<?xml version="1.0" encoding="UTF-8"?><!DOCTYPE svg PUBLIC "-//W3C//DTD SVG 1.1//EN" "http://www.w3.org/Graphics/SVG/1.1/DTD/svg11.dtd"><svg xmlns="http://www.w3.org/2000/svg" xmlns:xlink="http://www.w3.org/1999/xlink" version="1.1" id="mdi-arrow-right-box" width="24" height="24" viewBox="0 0 24 24"><path d="M5,21A2,2 0 0,1 3,19V5A2,2 0 0,1 5,3H19A2,2 0 0,1 21,5V19C21,20.11 20.1,21 19,21H5M6,13H14.5L11,16.5L12.42,17.92L18.34,12L12.42,6.08L11,7.5L14.5,11H6V13Z" /></svg>
